configs/network-logos/zksync.svg

<svg width="118" height="24" viewBox="0 0 118 24" fill="none" xmlns="http://www.w3.org/2000/svg">
<g clip-path="url(#clip0_10777_16948)">
<path d="M88.7296 20.7983H83.9049C78.1204 20.7983 73.4174 16.1352 73.4174 10.3999C73.4174 4.66458 78.1204 0 83.9064 0C89.6924 0 94.394 4.66307 94.394 10.3984V20.5902H90.199V10.3984C90.199 6.95087 87.3835 4.15936 83.9064 4.15936C80.4293 4.15936 77.6139 6.95087 77.6139 10.3984C77.6139 13.8459 80.4293 16.6374 83.9064 16.6374H88.7311V20.7968L88.7296 20.7983Z" fill="black"/>
<path d="M65.0273 20.5902H60.8323V10.3984C60.8323 4.66307 65.5353 0 71.3198 0V4.15936C67.8427 4.15936 65.0273 6.95087 65.0273 10.3984V20.5902Z" fill="black"/>
<path d="M46.1482 20.7983C40.3637 20.7983 35.6606 16.1352 35.6606 10.3999C35.6606 4.66458 40.3637 0 46.1482 0C51.9327 0 56.6357 4.66307 56.6357 10.3984V12.4781H44.5739V8.31872H52.0757C51.2041 5.89369 48.88 4.15936 46.1528 4.15936C42.6757 4.15936 39.8602 6.95087 39.8602 10.3984C39.8602 13.8459 42.6757 16.6374 46.1528 16.6374C48.2503 16.6374 50.2094 15.5969 51.3806 13.8625L54.8576 16.1835C52.9153 19.0625 49.6633 20.7968 46.1467 20.7968L46.1482 20.7983Z" fill="black"/>
<path d="M110.932 4.15942H100.686V20.5903H110.932V4.15942Z" fill="black"/>
<path d="M20.9766 18.7187L29.3666 10.3984L20.9766 2.07971V8.31875L12.5865 14.5593H20.9766V18.7187Z" fill="black"/>
<path d="M8.39003 2.07971L0 10.3984L8.39003 18.7187V12.4796L16.7816 6.23907H8.39003V2.07971Z" fill="black"/>
</g>
<defs>
<clipPath id="clip0_10777_16948">
<rect width="118" height="24" fill="white"/>
</clipPath>
</defs>
</svg>

<svg xmlns="http://www.w3.org/2000/svg" fill="none" viewBox="0 0 118 24">
  <g fill="#000" clip-path="url(#zksync_svg__a)">
    <path d="M88.73 20.798h-4.825c-5.785 0-10.488-4.663-10.488-10.398 0-5.735 4.703-10.4 10.49-10.4 5.785 0 10.487 4.663 10.487 10.398V20.59h-4.195V10.398c0-3.447-2.816-6.239-6.293-6.239-3.477 0-6.292 2.792-6.292 6.24 0 3.447 2.815 6.238 6.292 6.238h4.825v4.16l-.001.001Zm-23.703-.208h-4.195V10.398C60.832 4.663 65.535 0 71.32 0v4.16c-3.477 0-6.293 2.79-6.293 6.238V20.59Zm-18.879.208c-5.784 0-10.487-4.663-10.487-10.398C35.66 4.665 40.364 0 46.148 0c5.785 0 10.488 4.663 10.488 10.398v2.08H44.574v-4.16h7.502a6.294 6.294 0 0 0-5.923-4.159c-3.477 0-6.293 2.792-6.293 6.24 0 3.447 2.816 6.238 6.293 6.238a6.307 6.307 0 0 0 5.228-2.774l3.477 2.32a10.486 10.486 0 0 1-8.711 4.614l.001.001ZM110.932 4.16h-10.246v16.43h10.246V4.16ZM20.977 18.719l8.39-8.32-8.39-8.32v6.24l-8.39 6.24h8.39v4.16ZM8.39 2.08 0 10.398l8.39 8.32V12.48l8.392-6.24H8.39V2.08Z"/>
  </g>
  <defs>
    <clipPath id="zksync_svg__a">
      <path fill="#fff" d="M0 0h118v24H0z"/>
    </clipPath>
  </defs>
</svg>
